packages/dnb-eufemia/assets/icons/boat.svg

<svg width="16" height="16" viewBox="0 0 16 16" fill="none" xmlns="http://www.w3.org/2000/svg">
<path d="M7.37783 10.951H14.5349C14.867 10.9509 15.0938 11.3097 14.9618 11.6076C14.7478 12.0676 14.5189 12.5607 14.0725 13.0483C12.4912 14.7756 10.652 15 8.31137 15C5.97072 15 3.88864 14.6169 2.15008 13.0483C1.62256 12.5723 1.29728 12.1578 1.03856 11.6076C0.903943 11.3037 1.13992 10.9509 1.46549 10.951H7.37783ZM7.37783 10.951V8.22336M7.37783 8.22336V1.75182C7.37803 1.04354 6.50059 0.720929 6.06464 1.2959L1.94452 7.5232C1.74413 7.82295 1.97904 8.22412 2.33161 8.22336H7.37783ZM10.8419 2.91298L13.6618 7.29591C13.8538 7.59542 13.6234 7.99934 13.2772 8H10V3.16027C9.99963 2.71082 10.6092 2.5511 10.8419 2.91298Z" stroke="black" stroke-width="1.5" stroke-linecap="round" stroke-linejoin="round"/>
</svg>

<svg width="16" height="16" viewBox="0 0 16 16" fill="none" xmlns="http://www.w3.org/2000/svg"><path d="M7.378 10.951h7.157c.332 0 .559.359.427.657-.214.46-.443.953-.89 1.44-1.58 1.728-3.42 1.952-5.76 1.952-2.341 0-4.423-.383-6.162-1.952-.527-.476-.853-.89-1.111-1.44a.474.474 0 0 1 .426-.657h5.913Zm0 0V8.223m0 0V1.752c0-.708-.877-1.031-1.313-.456l-4.12 6.227c-.2.3.034.701.387.7h5.046Zm3.464-5.31 2.82 4.383c.192.3-.039.703-.385.704H10V3.16c0-.45.61-.609.842-.247Z" stroke="#000" stroke-width="1.5" stroke-linecap="round" stroke-linejoin="round"/></svg>
